X: 305668
M: 2/4
L: 1/16
K: D
[|\
a>gf>g e>fg>e | d>fe>d c>BA>G |\
a>gf>g e>fg>e | d>fe>c "^D.C."d4 |]\
f>a^g>a b>ag>a | e>a^g>a b>ag>a |\
f>a^g>a b>ge>d | c>ef>e d>cB>A |
f>a^g>a b>ag>a | e>a^g>a b>ag>a |\
f>af>a ^g>bg>b | aced cBA"^D.C."G |][K:Dm] \
d>fe>f e>fe>d | ^c>de>c d>ed>c |
d>fe>f e>fe>d | ^c>de>c A4 |\
d>fe>f e>fe>d | ^c>de>c d>ed>c |\
d>fe>f e>gf>e | dfe^c "^D.C."d4 |]


